X:10705
T:Merry Blacksmith, The
T:Paddy on the Railroad
S:Madison, Wisconsin sessions
N:Cf. Fiddler's Fakebook and O'Neill's. Transcribed by Alan Ng
Z: id:ng-reels-3 transcribed by Alan Ng agng@students.wisc.edu 1995
E:11
M:C|
K:D
\medskip
A2|d3 A BAFA|ABdA BAFA|ABde f2 ed|Beed efge|d3 A BAFA|ABdA BAFA|ABde fded|BABc d2::\
fg|~a3 g ~f3 e|d3 A BAFA|ABde f2ed|Beed efge|~a3 g ~f3 e|d3 A BAFA|ABde fded|BABc d2:|**
\bigskip
